symbolic/22x22/apps/konqueror.svg

<svg xmlns="http://www.w3.org/2000/svg" width="22" height="22" version="1">
 <path style="opacity:0.2" d="m 5.2148767,1.3611678 c -0.045395,0.00465 -0.088954,0.02528 -0.1230479,0.059571 L 3.514668,2.9978993 c -0.066337,0.066527 -0.07918,0.1694503 -0.030274,0.250002 l 1.8466938,3.0429922 c -0.327631,0.5508078 -0.58967,1.1440309 -0.7773495,1.7705217 l -3.3916279,0.70606 C 1.0677554,8.7870053 1,8.8708445 1,8.9676722 v 2.2304858 c 0,0.09435 0.064359,0.176267 0.1552747,0.198244 l 3.2920176,0.804694 c 0.1755278,0.72558 0.4471494,1.412747 0.8066467,2.044938 l -1.905288,2.905295 c -0.053155,0.0812 -0.042309,0.188443 0.026367,0.256838 l 1.5781372,1.578137 c 0.066338,0.06615 0.1691108,0.07896 0.2500019,0.03028 l 2.9863512,-1.813491 c 0.5864526,0.338417 1.2182837,0.604559 1.8867337,0.785162 l 0.696294,3.349636 c 0.0196,0.0949 0.103992,0.162109 0.200196,0.162109 h 2.231463 c 0.0938,0 0.175856,-0.06423 0.198245,-0.156251 l 0.820319,-3.355495 c 0.689047,-0.185957 1.340685,-0.463592 1.94142,-0.817389 l 2.942406,1.928726 c 0.0809,0.05326 0.187192,0.04329 0.255861,-0.02539 l 1.578137,-1.578138 c 0.06674,-0.06671 0.07833,-0.169655 0.0293,-0.250002 l -2.00783,-2.542993 C 18.060529,13.466487 18.172025,13.592522 17.842904,13.241143 L 9.529363,4.5047471 8.3613851,3.3699725 C 8.1702117,3.4368506 8.2465673,3.3944177 8.33697,3.3533709 L 5.3486668,1.3933947 c -0.040555,-0.026535 -0.08743,-0.036897 -0.1328136,-0.032227 z m 3.1220943,1.992203 0.02246,0.014649 c 0.00105,9.5e-4 0.0017,0.0017 0.00195,0.00195 C 8.5574931,3.263143 8.437964,3.3075108 8.336966,3.3533678 Z"/>
 <path id="path5692_2_-3" style="fill:#8e8e8e" d="m 5.2148767,0.8611639 c -0.045395,0.00465 -0.088954,0.02528 -0.1230479,0.059571 L 3.514668,2.4978954 c -0.066337,0.066527 -0.07918,0.1694503 -0.030274,0.250002 l 1.8466938,3.0429922 c -0.327631,0.5508078 -0.58967,1.1440309 -0.7773495,1.7705217 l -3.3916279,0.70606 C 1.0677554,8.2870015 1,8.3708406 1,8.4676684 v 2.2304856 c 0,0.09435 0.064359,0.176268 0.1552747,0.198244 l 3.2920176,0.804694 c 0.1755278,0.72558 0.4471494,1.412747 0.8066467,2.044938 l -1.905288,2.905295 c -0.053155,0.0812 -0.042309,0.188443 0.026367,0.256838 l 1.5781372,1.578138 c 0.066338,0.06615 0.1691108,0.07895 0.2500019,0.03027 L 8.1895083,16.70308 c 0.5864526,0.338417 1.2182837,0.604559 1.8867337,0.785162 l 0.696294,3.349636 c 0.0196,0.0949 0.103992,0.162109 0.200196,0.162109 h 2.231463 c 0.0938,0 0.175856,-0.06423 0.198245,-0.156251 l 0.820319,-3.355495 c 0.689047,-0.185957 1.340685,-0.463592 1.94142,-0.817389 l 2.942406,1.928726 c 0.0809,0.05326 0.187192,0.04329 0.255861,-0.02539 l 1.578137,-1.578137 c 0.06674,-0.06671 0.07833,-0.169656 0.0293,-0.250002 l -2.007826,-2.54299 c -0.901528,-1.236576 -0.790032,-1.110541 -1.119153,-1.46192 L 9.529363,4.0047432 8.3613851,2.8699686 C 8.1702117,2.9368468 8.2465673,2.8944138 8.33697,2.853367 L 5.3486668,0.8933908 C 5.3081115,0.8668556 5.2612371,0.856494 5.2158532,0.861164 Z m 3.1220943,1.992203 0.02246,0.014649 c 0.00105,9.5e-4 0.0017,0.0017 0.00195,0.00196 0.1961121,-0.1068268 0.076583,-0.062459 -0.024415,-0.016602 z"/>
 <path style="opacity:0.1;fill:#ffffff" d="m 5.2148767,0.8611639 c -0.045395,0.00465 -0.088954,0.02528 -0.1230479,0.059571 L 3.514668,2.4978954 c -0.066337,0.066527 -0.07918,0.1694503 -0.030274,0.250002 l 0.1054696,0.174806 1.5019649,-1.5019648 c 0.034095,-0.034291 0.077652,-0.054921 0.1230479,-0.059571 h 0.001 c 0.045385,-0.00467 0.092258,0.00569 0.1328136,0.032227 l 2.9883042,1.9599761 c 0.1009982,-0.045857 0.2205262,-0.090225 0.024415,0.016602 l 1.1679788,1.1347748 8.313541,8.7363955 c 0.32912,0.351379 0.217624,0.225344 1.119149,1.461925 l 1.88478,2.386738 0.09375,-0.09375 c 0.06674,-0.06671 0.07833,-0.169656 0.0293,-0.250002 l -2.007855,-2.54299 C 18.060529,12.966483 18.172025,13.092518 17.842904,12.741139 L 9.529363,4.0047432 8.3613851,2.8699686 C 8.1702117,2.9368468 8.2465673,2.8944138 8.33697,2.853367 L 5.3486668,0.8933908 C 5.3081115,0.8668556 5.2612371,0.856494 5.2158532,0.861164 Z m 3.1220943,1.992203 0.02246,0.014649 c 0.00105,9.5e-4 0.0017,0.0017 0.00195,0.00196 0.1961121,-0.1068268 0.076583,-0.062459 -0.024415,-0.016602 z m 0.024415,0.5166056 c -2.5e-4,-2.55e-4 -9e-4,-0.00101 -0.00195,-0.00195 l -0.02246,-0.014649 c -0.090403,0.041047 -0.1667593,0.08348 0.024415,0.016602 z M 5.186557,6.0526106 C 4.9271955,6.5288188 4.7122718,7.0322157 4.5537396,7.5614113 l -3.3916289,0.70606 C 1.0677554,8.2870015 1,8.3708406 1,8.4676684 V 8.9676722 C 1,8.8708442 1.067755,8.7870053 1.1621107,8.7674752 l 3.3916279,-0.70606 C 4.7414181,7.4349244 5.0034571,6.8417013 5.3310881,6.2908935 Z M 5.1084314,13.967711 3.348652,16.651325 c -0.053156,0.0812 -0.04231,0.188443 0.026366,0.256838 l 0.080079,0.08008 1.7988418,-2.742208 C 5.2022848,14.155195 5.1564318,14.06077 5.1084302,13.967712 Z"/>
 <ellipse id="ellipse929" style="opacity:0.1" cx="12.5" cy="10" rx="6.5" ry="6.5"/>
 <ellipse id="ellipse8" style="fill:#365ee6" cx="12.5" cy="9.5" rx="6.5" ry="6.5"/>
 <path style="opacity:0.1" class="ColorScheme-Text" d="m 12.434084,5.500462 a 4.5006796,4.5001058 0 0 1 3.248049,1.3183911 4.5006796,4.5001058 0 0 1 0,6.3634309 4.5006796,4.5001058 0 0 1 -6.364242,0 4.5006796,4.5001058 0 0 1 0,-6.3634309 4.5006796,4.5001058 0 0 1 3.116193,-1.3183911 z m 0.123065,0.5625138 a 3.9380947,3.9375932 0 0 0 -2.63272,0.9646219 l 0.790035,0.7899359 A 2.8127454,4.5003929 45.008322 0 1 13.765828,6.2750164 3.9380947,3.9375932 0 0 0 12.557149,6.0629758 Z M 14.260287,6.797978 A 2.2501964,3.9378439 45.007184 0 0 11.113328,8.2163461 L 12.500012,9.602854 15.060213,7.0429787 A 2.2501964,3.9378439 45.007184 0 0 14.260287,6.797978 Z m -4.73692,0.624038 a 3.9380947,3.9375932 0 0 0 -0.75158,3.831023 2.8127454,4.5003929 45.008322 0 1 1.547109,-3.0355945 z m 5.93571,0.017581 -2.561299,2.560974 1.387782,1.387605 A 2.2501964,3.9378439 45.007184 0 0 15.459077,7.439597 Z M 10.714464,8.6129644 A 2.2501964,3.9378439 45.007184 0 0 9.540947,12.561543 l 2.5613,-2.560973 z m 5.513772,0.1351346 a 2.8127454,4.5003929 45.008322 0 1 -1.547109,3.035595 l 0.79553,0.795429 a 3.9380947,3.9375932 0 0 0 0.751579,-3.831024 z m -3.728224,1.650185 -2.560201,2.559875 a 2.2501964,3.9378439 45.007184 0 0 3.946885,-1.173367 z m 1.785548,1.78532 a 2.8127454,4.5003929 45.008322 0 1 -3.051364,1.542518 3.9380947,3.9375932 0 0 0 3.841401,-0.752581 z"/>
 <path style="fill:#fafafa" class="ColorScheme-Text" d="m 12.434084,5.0004635 a 4.5006796,4.5001058 0 0 1 3.248049,1.3183911 4.5006796,4.5001058 0 0 1 0,6.3634314 4.5006796,4.5001058 0 0 1 -6.364242,0 4.5006796,4.5001058 0 0 1 0,-6.3634314 4.5006796,4.5001058 0 0 1 3.116193,-1.3183911 z m 0.123065,0.5625138 a 3.9380947,3.9375932 0 0 0 -2.63272,0.9646219 l 0.790035,0.7899359 A 2.8127454,4.5003929 45.008322 0 1 13.765828,5.7750179 3.9380947,3.9375932 0 0 0 12.557149,5.5629773 Z m 1.703138,0.7350022 A 2.2501964,3.9378439 45.007184 0 0 11.113328,7.7163476 L 12.500012,9.102856 15.060213,6.5429802 A 2.2501964,3.9378439 45.007184 0 0 14.260287,6.2979795 Z m -4.73692,0.624038 a 3.9380947,3.9375932 0 0 0 -0.75158,3.8310235 2.8127454,4.5003929 45.008322 0 1 1.547109,-3.035595 z m 5.93571,0.017581 -2.561299,2.5609745 1.387782,1.387605 A 2.2501964,3.9378439 45.007184 0 0 15.459077,6.9395985 Z M 10.714464,8.1129659 A 2.2501964,3.9378439 45.007184 0 0 9.540947,12.061545 l 2.5613,-2.560973 z m 5.513772,0.1351346 a 2.8127454,4.5003929 45.008322 0 1 -1.547109,3.0355955 l 0.79553,0.795429 A 3.9380947,3.9375932 0 0 0 16.228236,8.2481005 Z M 12.500012,9.898286 9.939811,12.458161 a 2.2501964,3.9378439 45.007184 0 0 3.946885,-1.173367 z m 1.785548,1.78532 a 2.8127454,4.5003929 45.008322 0 1 -3.051364,1.542518 3.9380947,3.9375932 0 0 0 3.841401,-0.752581 z"/>
 <path id="ellipse933" style="opacity:0.1;fill:#ffffff" d="m 12.500012,2.999996 a 6.5,6.500001 0 0 0 -6.5,6.5 6.5,6.500001 0 0 0 0.00977,0.300781 6.5,6.500001 0 0 1 6.49023,-6.300781 6.5,6.500001 0 0 1 6.490234,6.199219 6.5,6.500001 0 0 0 0.0098,-0.199219 6.5,6.500001 0 0 0 -6.5,-6.5 z"/>
</svg>

<svg xmlns="http://www.w3.org/2000/svg" width="22" height="22" version="1"><path style="opacity:.2" d="M5.215 1.361a.203.203 0 0 0-.123.06L3.515 2.998a.204.204 0 0 0-.03.25L5.33 6.29a7.89 7.89 0 0 0-.777 1.77l-3.392.706a.204.204 0 0 0-.162.2v2.231c0 .095.064.176.155.198l3.292.805a7.88 7.88 0 0 0 .807 2.045l-1.905 2.905a.204.204 0 0 0 .026.257l1.578 1.578c.066.066.17.08.25.03l2.987-1.813a7.889 7.889 0 0 0 1.886.785l.697 3.35c.02.095.104.162.2.162h2.231a.204.204 0 0 0 .198-.156l.82-3.356a7.863 7.863 0 0 0 1.942-.817l2.943 1.929c.08.053.187.043.255-.026l1.579-1.578a.203.203 0 0 0 .029-.25l-2.008-2.543c-.901-1.237-.79-1.11-1.12-1.462L9.53 4.505 8.361 3.37c-.19.067-.114.024-.024-.017l-2.988-1.96a.204.204 0 0 0-.133-.032zm3.122 1.992.022.015.002.002c.196-.107.077-.062-.024-.017z"/><path style="fill:#8e8e8e" d="M5.215.861a.203.203 0 0 0-.123.06L3.515 2.498a.204.204 0 0 0-.03.25L5.33 5.79a7.89 7.89 0 0 0-.777 1.77l-3.392.706a.204.204 0 0 0-.162.2v2.231c0 .095.064.176.155.198l3.292.805a7.88 7.88 0 0 0 .807 2.045l-1.905 2.905a.204.204 0 0 0 .026.257l1.578 1.578c.066.066.17.08.25.03l2.987-1.813a7.889 7.889 0 0 0 1.886.785l.697 3.35c.02.095.104.162.2.162h2.231a.204.204 0 0 0 .198-.156l.82-3.356a7.863 7.863 0 0 0 1.942-.817l2.943 1.929c.08.053.187.043.255-.026l1.579-1.578a.203.203 0 0 0 .029-.25l-2.008-2.543c-.901-1.237-.79-1.11-1.12-1.462L9.53 4.005 8.361 2.87c-.19.067-.114.024-.024-.017L5.349.893a.204.204 0 0 0-.133-.032zm3.122 1.992.022.015.002.002c.196-.107.077-.062-.024-.017z"/><path style="opacity:.1;fill:#fff" d="M5.215.861a.203.203 0 0 0-.123.06L3.515 2.498a.204.204 0 0 0-.03.25l.105.175L5.092 1.42a.204.204 0 0 1 .257-.027l2.988 1.96c.101-.046.22-.09.024.016L9.53 4.505l8.314 8.736c.329.352.218.225 1.12 1.462l1.884 2.387.094-.094a.203.203 0 0 0 .029-.25l-2.008-2.543c-.901-1.237-.79-1.11-1.12-1.462L9.53 4.005 8.361 2.87c-.19.067-.114.024-.024-.017L5.349.893a.204.204 0 0 0-.133-.032zm3.122 1.992.022.015.002.002c.196-.107.077-.062-.024-.017zm.024.517-.002-.002-.022-.015c-.09.041-.167.084.024.017zM5.187 6.053c-.26.476-.475.98-.633 1.508l-3.392.706a.204.204 0 0 0-.162.2v.5c0-.096.068-.18.162-.2l3.392-.706a7.89 7.89 0 0 1 .777-1.77zm-.079 7.915-1.76 2.683a.204.204 0 0 0 .027.257l.08.08 1.799-2.742c-.052-.09-.098-.185-.146-.278z"/><circle style="opacity:.1" cx="12.5" cy="10" r="6.5"/><circle style="fill:#365ee6" cx="12.5" cy="9.5" r="6.5"/><path style="opacity:.1" class="ColorScheme-Text" d="M12.434 5.5a4.5 4.5 0 0 1 3.248 1.319 4.5 4.5 0 0 1 0 6.363 4.5 4.5 0 0 1-6.364 0 4.5 4.5 0 0 1 0-6.363A4.5 4.5 0 0 1 12.434 5.5zm.123.563a3.938 3.938 0 0 0-2.633.965l.79.79a2.813 4.5 45.008 0 1 3.052-1.543 3.938 3.938 0 0 0-1.209-.212zm1.703.735a2.25 3.938 45.007 0 0-3.147 1.418L12.5 9.603l2.56-2.56a2.25 3.938 45.007 0 0-.8-.245zm-4.737.624a3.938 3.938 0 0 0-.751 3.831 2.813 4.5 45.008 0 1 1.547-3.036zm5.936.018L12.898 10l1.388 1.388a2.25 3.938 45.007 0 0 1.173-3.948zm-4.745 1.173a2.25 3.938 45.007 0 0-1.173 3.949L12.102 10zm5.514.135a2.813 4.5 45.008 0 1-1.547 3.036l.796.795a3.938 3.938 0 0 0 .751-3.83zm-3.728 1.65-2.56 2.56a2.25 3.938 45.007 0 0 3.947-1.173zm1.786 1.786a2.813 4.5 45.008 0 1-3.052 1.542 3.938 3.938 0 0 0 3.842-.752z"/><path style="fill:#fafafa" class="ColorScheme-Text" d="M12.434 5a4.5 4.5 0 0 1 3.248 1.319 4.5 4.5 0 0 1 0 6.363 4.5 4.5 0 0 1-6.364 0 4.5 4.5 0 0 1 0-6.363A4.5 4.5 0 0 1 12.434 5zm.123.563a3.938 3.938 0 0 0-2.633.965l.79.79a2.813 4.5 45.008 0 1 3.052-1.543 3.938 3.938 0 0 0-1.209-.212zm1.703.735a2.25 3.938 45.007 0 0-3.147 1.418L12.5 9.103l2.56-2.56a2.25 3.938 45.007 0 0-.8-.245zm-4.737.624a3.938 3.938 0 0 0-.751 3.831 2.813 4.5 45.008 0 1 1.547-3.036zm5.936.018L12.898 9.5l1.388 1.388a2.25 3.938 45.007 0 0 1.173-3.948zm-4.745 1.173a2.25 3.938 45.007 0 0-1.173 3.949L12.102 9.5zm5.514.135a2.813 4.5 45.008 0 1-1.547 3.036l.796.795a3.938 3.938 0 0 0 .751-3.83zM12.5 9.898l-2.56 2.56a2.25 3.938 45.007 0 0 3.947-1.173zm1.786 1.786a2.813 4.5 45.008 0 1-3.052 1.542 3.938 3.938 0 0 0 3.842-.752z"/><path style="opacity:.1;fill:#fff" d="M12.5 3A6.5 6.5 0 0 0 6 9.5a6.5 6.5 0 0 0 .01.3 6.5 6.5 0 0 1 6.49-6.3 6.5 6.5 0 0 1 6.49 6.2 6.5 6.5 0 0 0 .01-.2A6.5 6.5 0 0 0 12.5 3z"/></svg>
